X: 2
T: Nova Scotia, The
C: Sean Ryan
Z: Smiley
S: https://thesession.org/tunes/168#setting47812
R: jig
M: 6/8
L: 1/8
K: Gmaj
BA|:GDB, DGB|d^ce dBG|~c3 ABc|ded B2A|
GDB, DGB|d^ce dBG|~c3 ABc|1 dAF GBA:|2 dAF GBd||
|:~g3 GBd|bag fed|~c3 ABc|ded B2d|
g>fg GBd|bag fed|~c3 ABc|1 dAF GBd:|2 dAF GBA||

%-------------------- TUNE SEPARATOR --------------------%

